frontend/public/svg/objects/tv.svg

<svg width="165" height="155" viewBox="0 0 165 155" fill="none" xmlns="http://www.w3.org/2000/svg">
<g clip-path="url(#clip0)">
<path d="M163.997 104.308C163.721 92.8355 163.504 81.1593 163.301 69.8709L163.078 58.1746C162.986 53.3702 161.916 48.4869 159.711 42.7971C158.316 39.0787 155.719 35.9325 152.333 33.8572C144.037 28.7444 135.964 26.1256 127.642 25.85C119.904 25.5874 112.028 25.5743 104.408 25.5684C100.903 25.5612 97.4373 25.5546 93.9718 25.5284C93.6502 25.5218 93.3221 25.502 92.9348 25.4627L91.8978 25.3708L92.4229 24.4782C92.6132 24.1631 92.7642 23.9071 92.9348 23.6577C93.7815 22.4507 94.6282 21.2359 95.4748 20.0282L95.6652 19.7592C97.7523 16.7859 99.9051 13.7207 101.946 10.6556C102.803 9.34695 103.418 7.89585 103.764 6.37054C103.941 5.477 103.823 4.55022 103.43 3.72901C103.036 2.90779 102.386 2.23618 101.579 1.8148C100.817 1.42174 99.9484 1.28668 99.1031 1.4299C98.2577 1.57312 97.4826 1.98686 96.8925 2.60894C95.9678 3.58259 95.1677 4.66739 94.51 5.83823L94.2016 6.37631C90.9199 12.0011 87.5332 17.8098 84.3105 23.638C83.1751 25.6858 81.7114 26.3619 79.5587 25.8303L79.2305 25.7514L79.1058 25.4364C78.8367 24.7604 78.5676 24.0779 78.305 23.3953C77.5765 21.5247 76.8349 19.6081 75.9619 17.7704C75.1395 16.0558 74.1124 14.447 72.9034 12.9791C72.5673 12.5463 72.1374 12.1951 71.6465 11.9518C71.1556 11.7086 70.6161 11.5797 70.068 11.5746C69.5639 11.5776 69.0651 11.6756 68.5978 11.8633C66.7601 12.5656 65.8084 13.9964 65.9856 15.7817C66.1766 17.5518 66.5868 19.2913 67.2064 20.9603C67.7124 22.2167 68.2979 23.4399 68.9588 24.6226C69.1491 24.9704 69.3395 25.338 69.5429 25.7187L70.0024 26.6047L68.0334 26.7491C66.7994 26.8344 65.6968 26.9067 64.5942 27.0051C61.47 27.2677 58.3393 27.5192 55.202 27.7598L54.9263 27.7861C46.9977 28.4031 38.7935 29.0462 30.7271 30.011C25.4961 30.6411 20.2979 32.2624 15.4607 33.9229C11.8574 35.1568 7.21709 37.7363 5.60905 42.9804C3.75818 49.0122 2.0517 54.9257 1.50037 60.9377C0.87029 67.875 0.89654 74.9969 0.922794 81.8819C0.929357 83.549 0.935933 85.1958 0.935933 86.8432C0.922807 93.6494 1.02128 100.567 1.11973 107.255V107.419C1.16567 110.215 1.20501 113.011 1.23782 115.807C1.25095 116.943 1.23789 118.072 1.22476 119.207C1.14487 121.78 1.21937 124.356 1.4479 126.919C2.99029 140.932 8.89076 148.133 21.8075 151.782C28.2199 153.6 34.9211 153.665 41.4123 153.724L46.4989 153.777C54.7097 153.862 63.1962 153.947 71.6826 153.947C91.3334 153.947 106.331 153.468 120.33 152.398C125.653 151.991 131.035 151.125 136.24 150.291C138.268 149.963 140.283 149.635 142.291 149.34C149.334 148.296 154.48 144.174 157.591 137.092C158.245 135.666 158.825 134.207 159.33 132.721C162.684 122.495 164.207 113.202 163.997 104.308ZM150.266 127.53C150.207 127.726 150.148 127.917 150.082 128.114C149.964 128.468 149.859 128.797 149.774 129.138C147.936 136.43 143.965 140.098 137.284 140.683C133.464 141.017 129.591 141.51 125.857 141.982C120.724 142.625 115.428 143.302 110.183 143.578C101.185 144.063 92.1275 144.207 82.545 144.358C78.2591 144.424 73.8682 144.496 69.3132 144.601C66.5041 144.542 63.6206 144.483 60.6627 144.424L59.9145 144.411C50.4698 144.227 40.7035 144.037 30.6812 143.702C27.6622 143.53 24.6809 142.944 21.8207 141.963C15.5461 139.981 11.9427 135.301 10.8073 127.661C10.4028 124.77 10.1858 121.857 10.1575 118.938C10.0853 115.794 10.0109 112.646 9.93427 109.493C9.68486 99.2283 9.42895 88.6219 9.48146 78.1861C9.41786 68.5268 10.6699 58.9045 13.203 49.5832C14.3647 45.4548 16.6684 43.059 20.4423 42.0482C21.1708 41.8579 21.9059 41.6545 22.6345 41.4576C26.7235 40.3418 30.9437 39.1933 35.1771 38.7601C63.3405 35.8984 87.0409 34.5661 109.763 34.5661C113.262 34.5661 116.786 34.5989 120.252 34.6645C126.552 34.7827 133.93 35.347 140.907 38.6549C141.53 38.9503 142.278 39.2981 143.053 39.6263C147.811 41.6281 150.443 44.8705 151.086 49.5502C151.257 50.8301 151.467 52.1297 151.67 53.3767C152.222 56.3982 152.578 59.4522 152.734 62.5196C152.918 68.8799 152.983 75.3441 153.049 81.5925C153.108 87.6964 153.174 94.017 153.351 100.239C153.647 110.8 152.668 119.47 150.266 127.53Z" fill="black"/>
<path d="M140.756 69.1242C140.021 58.2945 134.16 51.0749 123.81 48.2527C120.017 47.2247 116.151 46.4939 112.245 46.067C104.794 45.2396 97.3021 44.8321 89.8048 44.8463C83.5171 44.8463 76.9996 45.1088 70.1934 45.6405C56.8567 46.6775 46.0533 48.6991 36.1951 52.0071C26.9539 55.1116 22.3071 61.1299 21.5654 70.9554C21.211 75.6745 21.0731 80.4854 20.9418 85.1389C20.8828 87.0751 20.535 96.7954 20.6334 99.3683C20.8566 105.157 21.0862 111.143 21.6704 117.017C22.7599 128.044 27.9516 133.458 39.024 135.132C44.1288 135.935 49.2948 136.281 54.4611 136.169L55.124 136.149C69.4714 135.71 84.3112 135.257 98.8491 134.056C107.572 133.334 116.268 131.358 123.626 129.52C132.303 127.355 137.816 121.237 139.568 111.845C139.907 110.195 140.12 108.52 140.205 106.837C140.467 98.049 140.678 89.3263 140.828 80.9121L140.855 79.5403C140.92 76.1083 140.993 72.5766 140.756 69.1242ZM130.57 78.7265C130.511 86.5566 130.432 94.2226 130.124 101.967C129.969 105.434 129.505 108.881 128.739 112.265C127.643 117.175 124.505 120.2 119.668 121.021C117.889 121.323 116.111 121.638 114.332 121.946C108.031 123.049 101.527 124.185 95.0817 124.86C88.8334 125.51 82.4604 125.845 75.0831 126.239L75.0241 125.582L75.0569 126.239L74.919 126.245C71.3158 126.436 67.5877 126.633 63.4004 126.889H63.3282C62.0286 126.823 60.4731 126.757 58.7338 126.685H58.6354C53.4897 126.475 47.1035 126.213 40.6123 125.668C34.3181 125.136 32.2637 123.154 31.0561 116.426C29.4524 107.469 28.7772 98.37 29.0411 89.2738L29.1133 86.7863C29.238 82.3166 29.3627 77.696 29.7368 73.1738C30.2094 67.4834 33.6486 63.5847 39.956 61.5829C48.5212 58.8657 57.979 57.1657 69.7077 56.2403C76.2908 55.7152 82.736 55.4529 88.8597 55.4529C96.7344 55.4364 104.603 55.8921 112.422 56.8178C115.757 57.2451 119.052 57.9432 122.274 58.9051C127.137 60.3096 129.795 63.5846 130.176 68.6451C130.465 72.5503 130.59 75.7532 130.57 78.7265Z" fill="black"/>
</g>
<defs>
<clipPath id="clip0">
<rect width="164.084" height="153.583" fill="white" transform="translate(0.392578 0.830322)"/>
</clipPath>
</defs>
</svg>

<svg xmlns="http://www.w3.org/2000/svg" width="165" height="155" fill="none" viewBox="0 0 165 155"><g fill="#000" clip-path="url(#a)"><path d="M163.997 104.308c-.276-11.473-.493-23.149-.696-34.437l-.223-11.696c-.092-4.805-1.162-9.688-3.367-15.378a17.83 17.83 0 0 0-7.378-8.94c-8.296-5.113-16.369-7.731-24.691-8.007-7.738-.263-15.614-.276-23.234-.282-3.505-.007-6.97-.013-10.436-.04-.322-.006-.65-.026-1.037-.065l-1.037-.092.525-.893c.19-.315.341-.57.512-.82.846-1.207 1.693-2.422 2.54-3.63l.19-.269c2.087-2.973 4.24-6.038 6.281-9.103a13.1 13.1 0 0 0 1.818-4.285 4.22 4.22 0 0 0-2.185-4.556 3.96 3.96 0 0 0-4.686.794 16.2 16.2 0 0 0-2.383 3.23l-.308.537c-3.282 5.625-6.669 11.434-9.891 17.262-1.136 2.048-2.6 2.724-4.752 2.192l-.328-.079-.125-.315q-.406-1.016-.801-2.04c-.729-1.871-1.47-3.788-2.343-5.626a23.6 23.6 0 0 0-3.059-4.79 3.64 3.64 0 0 0-2.835-1.405 4 4 0 0 0-1.47.288c-1.838.703-2.79 2.133-2.612 3.919a21.5 21.5 0 0 0 1.22 5.178 32 32 0 0 0 1.753 3.663c.19.347.38.715.584 1.096l.46.886-1.97.144c-1.234.085-2.336.158-3.439.256q-4.686.394-9.392.755l-.276.026c-7.928.617-16.132 1.26-24.199 2.225-5.23.63-10.43 2.251-15.266 3.912-3.604 1.234-8.244 3.813-9.852 9.057-1.85 6.032-3.557 11.946-4.109 17.958C.87 67.875.897 74.997.923 81.882c.006 1.667.013 3.314.013 4.961-.013 6.806.085 13.724.184 20.412v.164q.069 4.194.118 8.388c.013 1.136 0 2.265-.013 3.4a64 64 0 0 0 .223 7.712c1.542 14.013 7.443 21.214 20.36 24.863 6.412 1.818 13.113 1.883 19.604 1.942l5.087.053c8.21.085 16.697.17 25.184.17 19.65 0 34.648-.479 48.647-1.549 5.323-.407 10.705-1.273 15.91-2.107 2.028-.328 4.043-.656 6.051-.951 7.043-1.044 12.189-5.166 15.3-12.248a46 46 0 0 0 1.739-4.371c3.354-10.226 4.877-19.519 4.667-28.413m-13.731 23.222c-.059.196-.118.387-.184.584-.118.354-.223.683-.308 1.024-1.838 7.292-5.809 10.96-12.49 11.545-3.82.334-7.693.827-11.427 1.299-5.133.643-10.429 1.32-15.674 1.596-8.998.485-18.056.629-27.638.78-4.286.066-8.677.138-13.232.243q-4.213-.089-8.65-.177l-.748-.013c-9.445-.184-19.211-.374-29.234-.709a33 33 0 0 1-8.86-1.739c-6.275-1.982-9.878-6.662-11.014-14.302a68 68 0 0 1-.65-8.723q-.108-4.716-.223-9.445c-.25-10.265-.505-20.871-.453-31.307a106.4 106.4 0 0 1 3.722-28.603c1.162-4.128 3.465-6.524 7.24-7.535.728-.19 1.463-.394 2.191-.59 4.09-1.116 8.31-2.265 12.543-2.698 28.164-2.862 51.864-4.194 74.586-4.194 3.499 0 7.023.033 10.489.098 6.3.119 13.678.683 20.655 3.99.623.296 1.371.644 2.146.972 4.758 2.002 7.39 5.245 8.033 9.924.171 1.28.381 2.58.584 3.827a71 71 0 0 1 1.064 9.143c.184 6.36.249 12.824.315 19.072.059 6.104.125 12.425.302 18.647.296 10.561-.683 19.231-3.085 27.291"/><path d="M140.756 69.124c-.735-10.83-6.596-18.05-16.946-20.871a75.6 75.6 0 0 0-11.565-2.186 200 200 0 0 0-22.44-1.22c-6.288 0-12.805.262-19.612.794-13.336 1.037-24.14 3.058-33.998 6.366-9.241 3.105-13.888 9.123-14.63 18.948-.354 4.72-.492 9.53-.623 14.184-.06 1.936-.407 11.656-.309 14.23.224 5.788.453 11.774 1.037 17.648 1.09 11.027 6.282 16.441 17.354 18.115a87 87 0 0 0 15.437 1.037l.663-.02c14.347-.439 29.187-.892 43.725-2.093 8.723-.722 17.419-2.698 24.777-4.536 8.677-2.165 14.19-8.283 15.942-17.675.339-1.65.552-3.325.637-5.008.262-8.788.473-17.51.623-25.925l.027-1.372c.065-3.432.138-6.963-.099-10.416m-10.186 9.603c-.059 7.83-.138 15.496-.446 23.24a58.5 58.5 0 0 1-1.385 10.298c-1.096 4.91-4.234 7.935-9.071 8.756-1.779.302-3.557.617-5.336.925-6.301 1.103-12.805 2.239-19.25 2.914-6.249.65-12.622.985-19.999 1.379l-.059-.657.033.657-.138.006c-3.603.191-7.331.388-11.519.644h-.072a520 520 0 0 0-4.594-.204h-.099c-5.145-.21-11.532-.472-18.023-1.017-6.294-.532-8.348-2.514-9.556-9.242a132.3 132.3 0 0 1-2.015-27.152l.072-2.488c.125-4.47.25-9.09.624-13.612.472-5.69 3.912-9.59 10.219-11.591 8.565-2.717 18.023-4.417 29.752-5.343a242 242 0 0 1 19.152-.787c7.874-.017 15.743.44 23.562 1.365a62 62 0 0 1 9.852 2.087c4.863 1.405 7.521 4.68 7.902 9.74.289 3.905.414 7.108.394 10.082"/></g><defs><clipPath id="a"><path fill="#fff" d="M.393.83h164.084v153.583H.393z"/></clipPath></defs></svg>
